!!!COM: Palestrina, Giovanni Perluigi da
!!!OPR: Missa O Regem coeli
!!!OMD: Credo
!!!OTL: Et in Spiritum
**kern	**kern	**kern	**kern
*Ibass	*Itenor	*Icalto	*Icant
!Bassus	!Tenor	!Altus	!Cantus
*clefF4	*clefGv2	*clefG2	*clefG2
*k[b-]	*k[b-]	*k[b-]	*k[b-]
*G:dor	*G:dor	*G:dor	*G:dor
*M4/2	*M4/2	*M4/2	*M4/2
=150	=150	=150	=150
1r	1.g	0r	1r
[1G	.	.	[1dd
.	2g	.	.
=151	=151	=151	=151
2G]	2g	0r	2dd]
2G	2g	.	2dd
2B-	1f	.	2dd
2B-	.	.	2dd
=152	=152	=152	=152
1c	1e-	1.g	1cc
[1G	1d	.	[1b-
.	.	2g	.
=153	=153	=153	=153
1G]	1.d	2g	2b-]
.	.	2g	4a
.	.	.	4g
2D	.	1f	2a
[2d	2d	.	[2b-
=154	=154	=154	=154
2d]	1A	2e	4b-]
.	.	.	4a
2c	.	2e	1a
2B-	2r	2d	.
2B-	[2d	2d	2g
=155	=155	=155	=155
1A	2d]	1e	2.a
.	2c#	.	.
.	.	.	4g
1r	2d	2r	2f
.	2A	[2a	[2e
=156	=156	=156	=156
2r	2c	2a]	2e]
1d	2B-	2g	2d
.	1A	2a	1e
2c#	.	2e	.
=157	=157	=157	=157
2d	1r	1f	2r
2A	.	.	1a
2c	2r	2e	.
2B-	[2d	2d	2g
=158	=158	=158	=158
2.A	2d]	1e	1a
.	2c#	.	.
4G	.	.	.
2F	1d	1r	2a
2G	.	.	[2b-
=159	=159	=159	=159
1D	2d	0r	2b-]
.	1f	.	2a
1r	.	.	2a
.	2e	.	2cc
=160	=160	=160	=160
0r	1d	1f	2b-
.	.	.	2.a
.	2c	2e	.
.	.	.	4g
.	2B-	2d	[2g
=161	=161	=161	=161
1r	1A	2.c	2g]
.	.	.	2f#
.	.	4d	.
2r	1G	2e-	[1g
[2G	.	2d	.
=162	=162	=162	=162
2G]	1r	2B-	0g]
2C	.	2c	.
1G	2r	1d	.
.	[2d	.	.
=163	=163	=163	=163
2F	2d]	0r	0r
2E	2G	.	.
4D	1d	.	.
4E	.	.	.
4F	.	.	.
4G	.	.	.
=164	=164	=164	=164
2A	2c	0r	0r
4D	2B-	.	.
4E	.	.	.
4F	4A	.	.
4G	4B-	.	.
4A	4c	.	.
4F	4A	.	.
=165	=165	=165	=165
2.G	4B-	2r	0r
.	4c	.	.
.	1d	1g	.
4F	.	.	.
2E	.	.	.
2E	2c#	2g	.
=166	=166	=166	=166
1D	0d	2f	2r
.	.	2d	1dd
1r	.	[1f	.
.	.	.	2dd
=167	=167	=167	=167
2r	0r	2f]	2cc
1A	.	4e	2a
.	.	4d	.
.	.	2e	2.cc
2A	.	2c	.
.	.	.	8b-
.	.	.	8a
=168	=168	=168	=168
2G	2r	2d	2b-
2F	1d	1f	1a
1B-	.	.	.
.	2d	4e	2g
.	.	4d	.
=169	=169	=169	=169
1A	2c	1e	0a
.	2c	.	.
2.D	1f	2r	.
.	.	2a	.
4E	.	.	.
=170	=170	=170	=170
2F	1d	2a	2r
2D	.	2a	2dd
1G	2r	2b-	2dd
.	2d	2b-	2dd
=171	=171	=171	=171
1D	2d	2.a	1ff
.	2d	.	.
.	.	4g	.
1r	2c	2a	2ee
.	2B-	[2b-	[2dd
=172	=172	=172	=172
1r	1e-	2b-]	2dd]
.	.	4a	2cc
.	.	4g	.
2r	1d	2.a	2.dd
[2d	.	.	.
.	.	4g	4cc
=173	=173	=173	=173
2d]	2r	2f	2b-
2c	1g	2e-	2cc
2.d	.	1d	1a
.	2f#	.	.
4c	.	.	.
=174	=174	=174	=174
2B-	2.g	0r	0r
2.c	.	.	.
.	4f	.	.
.	2e	.	.
4B-	.	.	.
4A	[2f	.	.
4G	.	.	.
=175	=175	=175	=175
2F	4f]	0r	0r
.	4e-	.	.
2F	4d	.	.
.	4c	.	.
4G	4B-	.	.
4A	4c	.	.
4B-	4d	.	.
4G	4B-	.	.
=176	=176	=176	=176
2A	2c	2r	0r
1G	2B-	2g	.
.	1A	2a	.
2F#	.	2a	.
=177	=177	=177	=177
1G	1G	1b-	2r
.	.	.	2dd
1r	1r	2a	2ee
.	.	2g	2ee
=178	=178	=178	=178
0r	0r	4f	1ff
.	.	4g	.
.	.	4a	.
.	.	4f	.
.	.	4g	2ee
.	.	4a	.
.	.	2b-	2dd
=179	=179	=179	=179
0r	0r	2a	4cc
.	.	.	4dd
.	.	2.g	4ee
.	.	.	4cc
.	.	.	4dd
.	.	4f	4ee
.	.	4d	[2ff
.	.	4e	.
=180	=180	=180	=180
2r	0r	2f	4ff]
.	.	.	4ee
2G	.	2g	1dd
2A	.	2e	.
2A	.	2e	2cc#
=181	=181	=181	=181
2.B-	2r	1d	1dd
.	2d	.	.
4B-	.	.	.
2A	2e	2r	1r
2G	2e	2g	.
=182	=182	=182	=182
4F	2f	2a	1r
4G	.	.	.
4A	2f	2a	.
4F	.	.	.
2G	2e	2.b-	2r
2G	2d	.	2dd
.	.	4b-	.
=183	=183	=183	=183
1C	4c	2a	2ee
.	4d	.	.
.	4e	2g	2ee
.	4c	.	.
1r	2d	4f	2.ff
.	.	4g	.
.	2d	4a	.
.	.	4f	4ff
=184	=184	=184	=184
2r	2c	4g	2ee
.	.	4a	.
2G	2d	2b-	2dd
2A	2f	2.a	4cc
.	.	.	4dd
2A	2e	.	4ee
.	.	4g	4cc
=185	=185	=185	=185
2.B-	2.d	1f	4dd
.	.	.	4ee
.	.	.	2.ff
4c	4e	.	.
2d	2f	1d	.
.	.	.	4ee
2G	2g	.	[2dd
=186	=186	=186	=186
2A	2e	0a	2dd]
2A	2e	.	2cc#
1D	1d	.	1dd
=187	=187	=187	=187
2r	2r	2r	2r
2D	2f	2a	2dd
2D	2f	2a	2dd
2D	2f	2a	2dd
=188	=188	=188	=188
1.A	1e	1a	2.cc
.	.	.	4b-
.	2c	1r	1a
2F	2d	.	.
=189	=189	=189	=189
2G	2e	2r	1r
2A	1f	1a	.
1B-	.	.	2r
.	4e	2g	[2dd
.	4d	.	.
=190	=190	=190	=190
1A	1e	2.a	2dd]
.	.	.	2cc#
.	.	4g	.
1r	1d	2f	2.dd
.	.	2d	.
.	.	.	4cc
=191	=191	=191	=191
0r	2r	2e-	2b-
.	1g	2c	2cc
.	.	1d	1a
.	2f#	.	.
=192	=192	=192	=192
2r	2.g	1G	1g
1G	.	.	.
.	4f	.	.
.	2e	2r	1r
2F	2f	[2c	.
=193	=193	=193	=193
2.G	2e	2c]	1r
.	2.d	2B-	.
4F	.	.	.
2E	.	2G	1cc
.	4c	.	.
2F	[2c	2A	.
=194	=194	=194	=194
1D	2c]	1F	1.ff
.	2B	.	.
1C	1c	2G	.
.	.	[2G	2ee-
=195	=195	=195	=195
1.G	2B-	4G]	2.dd
.	.	4A	.
.	4G	4B-	.
.	4A	4c	4cc
.	4B-	4d	2b-
.	4c	4e	.
2F	[2d	[2f	2a
=196	=196	=196	=196
2D	4d]	2f]	2b-
.	4c	.	.
2F	2A	2c	2.a
2E-	2B-	1e-	.
.	.	.	4g
2C	2c	.	[2g
=197	=197	=197	=197
1D	1A	0d	2g]
.	.	.	2f#
1r	1G	.	1g
=198	=198	=198	=198
0G	0g	1r	0b-
.	.	[1d	.
=199	=199	=199	=199
1B-	1f	2d]	1dd
.	.	2d	.
1c	1e-	1g	1cc
=200	=200	=200	=200
0G	0d	0g	1.b-
.	.	.	4a
.	.	.	4g
=201	=201	=201	=201
1.D	2r	1.f	1a
.	1d	.	.
.	.	.	2r
2D	2d	2f	[2a
=202	=202	=202	=202
2D	2d	2f	2a]
2D	2d	2f	2a
1A	1c	2.e	2a
.	.	.	2a
.	.	4f#	.
=203	=203	=203	=203
1G	2d	1g	1b-
.	2.e-	.	.
1r	.	1g	1cc
.	4d	.	.
.	[2c	.	.
=204	=204	=204	=204
0G	2c]	1.g	1.dd
.	4B-	.	.
.	4A	.	.
.	2B-	.	.
.	2d	2g	2b-
=205	=205	=205	=205
1E-	2.e-	1g	2cc
.	.	.	1b-
.	4d	.	.
[1F	[1c	[1f	.
.	.	.	4a
.	.	.	4g
=206	=206	=206	=206
1F]	1c]	1f]	1a
[1BB-	1B-	2r	[1b-
.	.	2f	.
=207	=207	=207	=207
1BB-]	2r	1f	1b-]
.	2B-	.	.
1r	2B-	2g	1r
.	2c	[2a	.
=208	=208	=208	=208
0r	2.d	4a]	1r
.	.	4g	.
.	.	4f	.
.	8c	4e	.
.	8B-	.	.
.	2A	1f	2r
.	2B-	.	2b-
=209	=209	=209	=209
0r	2G	2g	2b-
.	2A	2e	2cc
.	4B-	[1d	2.dd
.	4c	.	.
.	4d	.	.
.	4e	.	8cc
.	.	.	8b-
=210	=210	=210	=210
1r	2f	2d]	2a
.	2.g	2G	2.b-
2r	.	1d	.
.	4f	.	4a
2B-	[2f	.	2f
=211	=211	=211	=211
2B-	2f]	1r	1g
2c	2e	.	.
2.d	[1f	2B-	1f
.	.	2B-	.
8c	.	.	.
8B-	.	.	.
=212	=212	=212	=212
2A	1f]	2c	0r
2.B-	.	2.d	.
.	[1d	.	.
4A	.	8c	.
.	.	8B-	.
2F	.	2A	.
=213	=213	=213	=213
2.G	1d]	2B-	2r
.	.	2G	2b-
4F	.	.	.
2E-	1G	[1g	2b-
2E-	.	.	2cc
=214	=214	=214	=214
1D	1A	2g]	2.dd
.	.	4f	.
.	.	4e	8cc
.	.	.	8b-
1r	1r	2f	2a
.	.	[2g	[2b-
=215	=215	=215	=215
0r	2r	4g]	4b-]
.	.	4f	4a
.	2B-	1f	2f
.	2B-	.	1g
.	2c	2e	.
=216	=216	=216	=216
0r	2.d	2.f	1f
.	8c	4g	.
.	8B-	.	.
.	2A	2a	2.ff
.	[2B-	[2d	.
.	.	.	4ee-
=217	=217	=217	=217
2r	4B-]	4d]	4dd
.	4A	4e	4cc
2BB-	2F	1f	1dd
2BB-	1G	.	.
2C	.	2e	4cc
.	.	.	4b-
=218	=218	=218	=218
2.D	2F	2.f	2.a
.	2.f	.	.
4E	.	4e	4g
2F	.	4d	2a
.	4e	4c	.
[2G	4d	4B-	[2b-
.	4c	4A	.
=219	=219	=219	=219
2G]	2B-	1G	4b-]
.	.	.	4a
2C	2c	.	1g
2D	2A	[1d	.
2D	2A	.	2f#
=220	=220	=220	=220
0G	2G	1d]	1g
.	2.g	.	.
.	.	1r	2r
.	4f	.	.
.	2d	.	[2dd
=221	=221	=221	=221
2.d	2.f	1r	4dd]
.	.	.	4cc
.	.	.	2a
4c	4e	.	.
2A	4c	2.a	2.cc
.	4d	.	.
[2c	4e	.	.
.	4f	4g	4b-
=222	=222	=222	=222
4c]	2.g	2e	2g
4B-	.	.	.
2G	.	2.g	2.b-
.	4f	.	.
2.B-	2d	.	.
.	.	4f	4a
.	[2f	2d	4f
4A	.	.	4g
=223	=223	=223	=223
4F	4f]	2f	4a
4G	4e	.	4b-
4A	4c	2.e	2cc
4B-	4d	.	.
2c	4e	.	2g
.	4c	4f	.
[2G	2d	2g	[2b-
=224	=224	=224	=224
4G]	2B-	2.d	4b-]
4F	.	.	4a
2D	2.d	.	2f
.	.	4c	.
2.F	.	2A	2.a
.	4c	.	.
.	2A	[2c	.
4E	.	.	4g
=225	=225	=225	=225
2C	2c	4c]	2e
.	.	4B-	.
2.E-	2B-	4G	2.g
.	.	4A	.
.	2G	1B-	.
4D	.	.	4f
4BB-	[2d	.	4d
4C	.	.	4e
=226	=226	=226	=226
4D	2d]	2.A	4f
4E	.	.	4g
2F	2.c	.	2.a
.	.	4B-	.
2C	.	1c	.
.	4B-	.	4g
2E-	2G	.	[2g
=227	=227	=227	=227
1D	1A	1d	2g]
.	.	.	2f#
[1G	[1G	[1d	[1g
=228	=228	=228	=228
1G_	1G_	1d_	1g_
1G_	1G_	1d_	1g_
=229	=229	=229	=229
1G]	1G]	1d]	1g]
==	==	==	==
*-	*-	*-	*-
!!!CDT: 1525/^1526/-1594/2/2
!!!OCY: Italia
!!!AGN: Mass (Parody)
!!!AST: renaissance, vocal
!!!ASW: Motet 1532 (Silva)
!!!PWK: Masses, Book I
!!!RNB: Cadence finals: D
!!!YOR: Le Opere Complete, v. 1, p. 35
!!!YOO: Rome, Italy: Fratelli Scalera
!!!END: 1992//
!!!EED: John Miller
!!!YEC: Copyright 2000, John Miller
!!!YEN: United States of America
!!!YEM: Rights to all derivative electronic formats reserved.
!!!YEM: Refer to licensing agreement for further details.
!!!YEM: This file must be accompanied by the licensing agreement.
!!!YEM: A copy of the licensing agreement may be found at http://www.music-cog.ohio-state.edu/HumdrumDatabases/Palestrina/license.txt
!!!EMD: converted to Humdrum by Bret Aarden
